X: 2259
T: HUMORS OF CASTLE LYONS
Q: "Irish Jig."
R: Jig.
%R: jig
B: James Kerr "Merry Melodies" v.2 p.28 #259
Z: 2016 John Chambers <jc:trillian.mit.edu>
M: 6/8
L: 1/8
K: G
|:\
vG3 BAG | vd2vG BAG | vA2vB uc2ud | ecA (A2B) |\
G3 BAG | dBG BAG | ABA (B2A) | GEE E3 :|
|:\
g3 gec | g3 gdB | A2B c2d | ecA A3 |\
g3 gec | g3 gdB | AGA (B2A) | GEE E3 :|

%%sep 1 1 500
%%sep 1 1 500

